X: 091164
T: If I Had a Wife
S: "Johnny O'Leary of Sliabh Luachra" (#128)
Z: B.Black
L: 1/8
M: 12/8
R: slide
Q: 360
K: G
B2A ABd e2d d2B|AGA B2A G2D D2A|
B2A ABd e2d d2B|AGA B2A G3 G3 :|
d2g gfg age d2g|eag aba g2a bge|
dgg gfg age d2g|eag aba g3 g3 :|
